X:1
T:Title
%%score 1 { 2 | 3 }
L:1/8
Q:1/4=100
M:4/4
K:E
V:1 treble nm="Grand Piano, Soprano"
V:2 bass nm="Choir Pad, Garaison, 87.87 D"
V:3 bass 
V:1
 [B,E]>[B,F] [EG]>[EA] [EG]2 [B,F]2 | [B,E]4 [B,D]2 z2 | [B,E]>[B,F] [EG]>[DA] [EB]2 [EG]2 | %3
w: By~J.~M.~White,~1874 * * * * *|||
 [DF]6 z2 | [EG]>[FA] [GB]>[Ac] [GB]2 [EG]2 | [EA]4 [Ac]2 z2 | [DF]>[CE] [B,D]>[B,E] [DF]2 [DG]2 | %7
w: ||||
 [B,E]6 z2 | [B,D]>[CE] [DF]>[EG] [FA]2 [Ac]2 | [GB]4 [EG]2 z2 | D>[CE] [DF]>[EG] [FA]2 [Ac]2 | %11
w: ||||
 [GB]6 z2 | [Ge]>[Ge] [Ge]>[Fd] [Ec]2 [FB]2 | [Ge]4 [EG]2 z2 | [EF]>E [EF]>[FA] [EG]2 [DF]2 | E8 |] %16
w: |||||
V:2
 G,>A, B,>C B,2 A,2 | G,4 F,2 z2 | G,>A, B,>B, E2 B,2 | B,6 z2 | B,>B, E>E E2 B,2 | C4 E2 z2 | %6
 B,>B, B,>B, B,2 B,2 | G,6 z2 | F,>F, B,>B, B,2 E2 | E4 B,2 z2 | B,>B, B,>B, B,2 E2 | E6 z2 | %12
 B,>B, B,>[K:treble]B, C2 D2 | E4 C2 z2 | C>C C>C B,2 A,2 | G,8 |] %16
V:3
 E,>E, E,>E, B,,2 B,,2 | B,,4 B,,2 z2 | E,>E, E,>F, G,2 E,2 | B,,6 z2 | E,>E, E,>E, E,2 E,2 | %5
 A,,4 A,,2 z2 | B,,>B,, [B,,F,]>[B,,F,] B,,2 B,,2 | E,6 z2 | B,,>B,, B,,>B,, B,,2 B,,2 | %9
 E,4 E,2 z2 | B,,>B,, B,,>B,, B,,2 B,,2 | E,6 z2 | E,>E, E,>E, E,2 D,2 | C,4 C,2 z2 | %14
 A,,>A,, A,,>A,, B,,2 B,,2 | E,8 |] %16

